X: 12
M: 3/4
L: 1/8
K: G
V: 1
|:\
d2BGce | e2d2gd | dcBAGF | G>FG2z2 |\
|:\
dBdgbd | d2cBc2 | cAcfac | (dc)BAB2 |\
V: 2 clef=bass middle=d
|:\
"G"g4 "(C)"z2 | "G"g4 b2 | "C"c'2 "G"d'2 "D"d2 | "G"g>dBd G2 |\
z2 "G"g2 g2 | z2 "D"d2d2 | "G"g2 z2 g2 | "G"d2 "D"D2 z2 :|
|:\
"(G)"z2 z2 "G"b2 | "G"b2 "D7"ag "6"a2 | "Am"a2 "D7"f2 d2 | "G"g2 d2 G2 |\
"(G)"z2 z2 "D"d2 | "G"g2 z2 B2 | "C"c2 "G"d2 "D"d2 | "G"G6 :|

